icon/lg/cinder.svg

<?xml version="1.0" encoding="UTF-8"?>
<svg viewBox="0 0 512 156" version="1.1" xmlns="http://www.w3.org/2000/svg" xmlns:xlink="http://www.w3.org/1999/xlink" preserveAspectRatio="xMidYMid" height="1em" width="1em">
  <g>
    <path d="M496.68945,83.7800892 L506.104012,93.1946508 L506.104012,112.879643 L498.876672,120.106984 L506.104012,127.334324 L506.104012,145.592868 L506.864785,146.35364 L512,146.35364 L512,155.292719 L499.447251,155.292719 L493.836553,149.682021 L493.836553,129.806835 L488.986627,124.956909 L467.20951,124.956909 L467.20951,146.448737 L475.768202,146.448737 L475.768202,155.387816 L447.049034,155.387816 L447.144131,146.35364 L455.037147,146.35364 L455.037147,92.7191679 L447.144131,92.7191679 L447.144131,83.7800892 L496.68945,83.7800892 Z M372.398217,83.7800892 L382.668648,94.0505201 L382.668648,145.022288 L372.398217,155.292719 L323.423477,155.292719 L323.423477,146.35364 L331.316493,146.35364 L331.316493,92.7191679 L323.423477,92.7191679 L323.423477,83.7800892 L372.398217,83.7800892 Z M318.573551,83.6849926 L318.573551,92.6240713 L311.346211,92.6240713 L311.346211,155.197623 L299.554235,155.197623 L269.979198,103.084695 L269.979198,146.258544 L278.82318,146.258544 L278.82318,155.197623 L251.340267,155.197623 L251.340267,146.35364 L259.233284,146.35364 L259.233284,92.7191679 L251.340267,92.7191679 L251.340267,83.7800892 L271.120357,83.7800892 L300.600297,135.322437 L300.600297,92.6240713 L291.756315,92.6240713 L291.756315,83.6849926 L318.573551,83.6849926 Z M441.533432,83.7800892 L441.533432,102.799406 L431.167905,102.799406 L431.167905,92.6240713 L407.013373,92.6240713 L407.013373,114.401189 L434.686478,114.401189 L434.686478,123.910847 L407.013373,123.910847 L407.013373,146.258544 L431.263001,146.258544 L431.263001,136.08321 L441.723626,136.08321 L441.723626,155.102526 L386.947994,155.102526 L386.947994,146.35364 L394.84101,146.35364 L394.84101,92.7191679 L386.947994,92.7191679 L386.947994,83.7800892 L441.533432,83.7800892 Z M195.32838,83.7800892 L205.123328,93.5750371 L205.123328,106.413076 L193.046062,106.413076 L193.046062,97.5690936 L188.576523,93.0995542 L170.413076,93.0995542 L165.56315,97.9494799 L165.56315,140.933135 L170.413076,145.783061 L188.576523,145.783061 L193.046062,141.313522 L193.046062,131.994056 L205.123328,131.994056 L205.123328,145.212481 L195.32838,155.007429 L163.661218,155.007429 L153.390788,145.117385 L153.390788,93.9554235 L163.661218,83.7800892 L195.32838,83.7800892 Z M365.551263,93.1946508 L343.488856,93.1946508 L343.488856,145.973254 L365.551263,145.973254 L370.401189,141.123328 L370.401189,98.0445765 L365.551263,93.1946508 Z M489.557207,92.7191679 L467.20951,92.7191679 L467.20951,115.827637 L489.17682,115.827637 L493.836553,111.167905 L493.836553,97.0936107 L489.557207,92.7191679 Z" fill="#58585A"/>
    <g transform="translate(212.540862, 83.970282)">
      <rect fill="#F05129" x="21.1114413" y="48.4992571" width="13.0282318" height="11.4115899"/>
      <rect fill="#F05129" x="2.70280743e-14" y="48.4992571" width="12.8380386" height="11.4115899"/>
      <rect fill="#F15A22" x="11.4115899" y="37.0876672" width="11.4115899" height="13.1233284"/>
      <rect fill="#BE1E2D" x="11.4115899" y="58.4843982" width="11.4115899" height="12.8380386"/>
      <rect fill="#FFD529" x="11.4115899" y="1.35140372e-14" width="11.4115899" height="12.5527489"/>
      <rect fill="#F36C21" x="11.4115899" y="21.0163447" width="11.4115899" height="13.0282318"/>
      <rect fill="#FBB040" x="0" y="11.3164933" width="13.5037147" height="11.4115899"/>
      <rect fill="#FBB040" x="21.1114413" y="11.3164933" width="13.0282318" height="11.4115899"/>
      <rect fill="#F7941E" x="11.4115899" y="11.3164933" width="11.4115899" height="11.4115899"/>
      <rect fill="#D51920" x="11.4115899" y="48.4992571" width="11.4115899" height="11.4115899"/>
    </g>
    <g transform="translate(52.683507, 44.315007)">
      <rect fill="#EF4123" x="0" y="7.0371471" width="8.08320951" height="7.0371471"/>
      <rect fill="#EF4123" x="12.4576523" y="7.0371471" width="8.55869242" height="7.0371471"/>
      <rect fill="#F15A22" x="7.0371471" y="0" width="7.0371471" height="8.55869242"/>
      <rect fill="#C9252C" x="7.0371471" y="12.5527489" width="7.0371471" height="8.46359584"/>
      <rect fill="#ED1C24" x="7.0371471" y="7.0371471" width="7.0371471" height="7.0371471"/>
    </g>
    <g transform="translate(73.985141, 31.572065)">
      <rect fill="#F7941E" x="5.13521545" y="-6.75701859e-15" width="5.13521545" height="6.27637444"/>
      <rect fill="#ED1C24" x="5.13521545" y="9.03417533" width="5.13521545" height="6.27637444"/>
      <rect fill="#F58220" x="9.12927192" y="5.13521545" width="6.18127786" height="5.13521545"/>
      <rect fill="#F58220" x="0" y="5.13521545" width="5.80089153" height="5.13521545"/>
      <rect fill="#F15A22" x="5.13521545" y="5.13521545" width="5.13521545" height="5.13521545"/>
    </g>
    <g transform="translate(62.763744, 69.800892)">
      <rect fill="#DA2128" x="3.04309064" y="0" width="3.04309064" height="3.89895988"/>
      <rect fill="#962F34" x="3.04309064" y="5.80089153" width="3.04309064" height="3.51857355"/>
      <rect fill="#C9252C" x="5.51560178" y="3.13818722" width="3.70876672" height="3.04309064"/>
      <rect fill="#C9252C" x="0" y="3.13818722" width="3.70876672" height="3.04309064"/>
      <rect fill="#B8292F" x="3.04309064" y="3.13818722" width="3.04309064" height="3.04309064"/>
    </g>
    <g transform="translate(50.306092, 21.301634)">
      <rect fill="#F7941E" x="-1.35140372e-14" y="5.23031204" width="6.46656761" height="5.32540862"/>
      <rect fill="#F7941E" x="9.50965825" y="5.23031204" width="6.27637444" height="5.32540862"/>
      <rect fill="#FAA61A" x="5.23031204" y="0" width="5.32540862" height="6.27637444"/>
      <rect fill="#F15A22" x="5.23031204" y="9.60475483" width="5.32540862" height="6.27637444"/>
      <rect fill="#F37021" x="5.23031204" y="5.23031204" width="5.32540862" height="5.32540862"/>
    </g>
    <g transform="translate(66.092125, -0.000000)">
      <rect fill="#FFF200" x="7.70282318" y="-3.37850929e-15" width="7.70282318" height="10.1753343"/>
      <rect fill="#F7941E" x="7.70282318" y="14.1693908" width="7.70282318" height="8.93907875"/>
      <rect fill="#FFDD00" x="13.9791976" y="7.70282318" width="9.2243685" height="7.70282318"/>
      <rect fill="#FFDD00" x="0" y="7.70282318" width="9.69985141" height="7.70282318"/>
      <rect fill="#FDB913" x="7.70282318" y="7.70282318" width="7.70282318" height="7.70282318"/>
    </g>
    <g transform="translate(0.000000, 64.855869)" fill="#58585A">
      <polygon points="-1.01355279e-14 90.4368499 52.6835067 11.4115899 105.367013 90.4368499"/>
      <polygon points="34.9004458 90.4368499 88.820208 2.70280743e-14 140.172363 90.4368499"/>
    </g>
  </g>
</svg>

<svg width="512" height="156" xmlns="http://www.w3.org/2000/svg" preserveAspectRatio="xMidYMid"><path d="m496.69 83.78 9.414 9.415v19.685l-7.227 7.227 7.227 7.227v18.259l.76.76H512v8.94h-12.553l-5.61-5.611v-19.875l-4.85-4.85H467.21v21.492h8.558v8.939H447.05l.095-9.034h7.893V92.719h-7.893V83.78h49.545Zm-124.292 0 10.27 10.27v50.972l-10.27 10.27h-48.975v-8.938h7.893V92.719h-7.893V83.78h48.975Zm-53.824-.095v8.94h-7.228v62.573h-11.792l-29.575-52.113v43.174h8.844v8.939H251.34v-8.844h7.893V92.719h-7.893V83.78h19.78l29.48 51.542V92.624h-8.844v-8.939h26.818Zm122.96.095v19.02h-10.366V92.623h-24.155v21.777h27.673v9.51h-27.673v22.348h24.25v-10.176h10.46v19.02h-54.775v-8.75h7.893V92.72h-7.893V83.78h54.585Zm-246.206 0 9.795 9.795v12.838h-12.077V97.57l-4.47-4.47h-18.163l-4.85 4.85v42.984l4.85 4.85h18.164l4.47-4.47v-9.319h12.076v13.218l-9.795 9.795h-31.667l-10.27-9.89V93.955l10.27-10.175h31.667Zm170.223 9.415H343.49v52.778h22.062l4.85-4.85V98.045l-4.85-4.85Zm124.006-.476H467.21v23.109h21.967l4.66-4.66V97.094l-4.28-4.375Z" fill="#58585A"/><path fill="#F05129" d="M233.652 132.47h13.028v11.411h-13.028zM212.54 132.47h12.839v11.411H212.54z"/><path fill="#F15A22" d="M223.953 121.058h11.412v13.123h-11.412z"/><path fill="#BE1E2D" d="M223.953 142.454h11.412v12.838h-11.412z"/><path fill="#FFD529" d="M223.953 83.97h11.412v12.553h-11.412z"/><path fill="#F36C21" d="M223.953 104.986h11.412v13.028h-11.412z"/><path fill="#FBB040" d="M212.54 95.286h13.505v11.412H212.54zM233.652 95.286h13.028v11.412h-13.028z"/><path fill="#F7941E" d="M223.953 95.286h11.412v11.412h-11.412z"/><path fill="#D51920" d="M223.953 132.47h11.412v11.411h-11.412z"/><path fill="#EF4123" d="M52.684 51.352h8.083v7.037h-8.083zM65.142 51.352H73.7v7.037h-8.56z"/><path fill="#F15A22" d="M59.72 44.315h7.038v8.559H59.72z"/><path fill="#C9252C" d="M59.72 56.868h7.038v8.464H59.72z"/><path fill="#ED1C24" d="M59.72 51.352h7.038v7.037H59.72z"/><path fill="#F7941E" d="M79.12 31.572h5.135v6.276H79.12z"/><path fill="#ED1C24" d="M79.12 40.606h5.135v6.276H79.12z"/><path fill="#F58220" d="M83.114 36.707h6.181v5.135h-6.18zM73.985 36.707h5.801v5.135h-5.8z"/><path fill="#F15A22" d="M79.12 36.707h5.135v5.135H79.12z"/><path fill="#DA2128" d="M65.807 69.8h3.043v3.9h-3.043z"/><path fill="#962F34" d="M65.807 75.602h3.043v3.519h-3.043z"/><path fill="#C9252C" d="M68.28 72.939h3.709v3.043h-3.71zM62.764 72.939h3.709v3.043h-3.71z"/><path fill="#B8292F" d="M65.807 72.939h3.043v3.043h-3.043z"/><path fill="#F7941E" d="M50.306 26.532h6.467v5.325h-6.467zM59.816 26.532h6.276v5.325h-6.276z"/><path fill="#FAA61A" d="M55.536 21.302h5.325v6.276h-5.325z"/><path fill="#F15A22" d="M55.536 30.907h5.325v6.276h-5.325z"/><path fill="#F37021" d="M55.536 26.532h5.325v5.325h-5.325z"/><path fill="#FFF200" d="M73.795 0h7.703v10.175h-7.703z"/><path fill="#F7941E" d="M73.795 14.169h7.703v8.939h-7.703z"/><path fill="#FD0" d="M80.071 7.703h9.224v7.703h-9.224zM66.092 7.703h9.7v7.703h-9.7z"/><path fill="#FDB913" d="M73.795 7.703h7.703v7.703h-7.703z"/><g fill="#58585A"><path d="m0 155.293 52.684-79.026 52.683 79.026z"/><path d="m34.9 155.293 53.92-90.437 51.352 90.437z"/></g></svg>
